X: 10
T: Inisheer
R: waltz
M: 3/4
L: 1/8
K: Dmix
DED |: B2BA Bd | B2BA Bd | E2EB AB | D2DB AG |
B2BA Bd | B2BA Bd | G2GB A/2G/2F |1 G2GD ED :|2 G3A Bd |
e3f ed | B2BA Bd | gf ed B/2c/2d |
e3d Bd | e2eaf ed | B3A Bd | G2GB A/2G/2F |
G3A Bd | e3f ed | B2BA Bd | gf ed B/2c/2d |
e2ed Bd | e3f ed | B3A Bd | G2GB A/2G/2F | G6 ||


Tune 211	Setting 20740

